!!!!SEGMENT: pl-kk--kk-i-88--003-006_golabek-jakub--missa-3-osanna.krn
!!!cenid: 17xx:2587
!!!COM: Gołąbek, Jakub
!!!COM-rismID: pe30008748
!!!CDT: 1739-1789/03/30
!!!CNT: Polish
!!!OPR: Missa 3
!!!OTL: Osanna
!!!OMV: 006
!!!PDT:
!!!AGN: Sacred; Mass
!!!YEC: Copyright 2022 Narodowy Instytut Fryderyka Chopina (https://polishscores.org)
!!!YEM: License CC-BY-4.0 (https://creativecommons.org/licenses/by/4.0)
!!!SMS-siglum: PL-Kk
!!!SMS-shelfmark: Kk.I.88
!!!SMS-variant:
!!!SMS-altvar:
!!!SMS-shelfwork: 003-006 M
!!!NIFC-rismSourceID: 1001164072
!!!NIFC-rismChildID: 1001164082
!!!NIFC-islandoraID:
!!!URL-pdf-islandora: https://repozytorium.nifc.pl/islandora/object/pl-kk%3A3086/datastream/PDF/view
!!!URL-scan: https://polish.musicsources.pl/pl/lokalizacje/galeria/rekopisy/6148-missa/4 @EN{Scan on Polish Music Sources Website} @PL{Skany w portalu Dziedzictwo Muzyki Polskiej w otwartym dostępie}
!!!IIIF:
!!!ONB-nifc: UWAGA: C - f. 6r-7v; A - f. 14r-15v; T - f. 22r-23v; B - f. 30r-31v; B rip - f. 35r-36v. Proszę uwzględniać B rip. Części Mszy: 1. Kyrie, 2. Christe, 3. Et in terra, 4. Quoniam, 5. Sanctus, 6. Osanna, 7. Benedictus, 8. Agnus Dei.
!!!OMD:
!!!AIN: 1 alto 2 bass 1 canto 1 tenor
!!!key: C
**kern	**text	**kern	**text	**kern	**text	**kern	**text	**kern	**text
*part5	*part5	*part4	*part4	*part3	*part3	*part2	*part2	*part1	*part1
*staff5	*staff5	*staff4	*staff4	*staff3	*staff3	*staff2	*staff2	*staff1	*staff1
*I"Baſso E ripieno	*	*I"Baſso	*	*I"Tenore	*	*I"Alto	*	*I"Canto	*
*I'B rip	*	*I'B	*	*I'T	*	*I'A	*	*I'S	*
*Ibass	*	*Ibass	*	*Itenor	*	*Ialto	*	*Icanto	*
*ICvox	*	*ICvox	*	*ICvox	*	*ICvox	*	*ICvox	*
*clefF4	*	*clefF4	*	*clefC4	*	*clefC3	*	*clefC1	*
*k[]	*	*k[]	*	*k[]	*	*k[]	*	*k[]	*
*C:	*	*C:	*	*C:	*	*C:	*	*C:	*
*M3/2	*	*M3/2	*	*M3/2	*	*M3/2	*	*M3/2	*
=1	=1	=1	=1	=1	=1	=1	=1	=1	=1
*	*	*	*	*	*	*2\right	*	*2\right	*
2C/	O-	2C/	O-	1.G	O-	2e\	O-	2cc\	O-
2D/	.	2D/	.	.	.	2f\	.	2b\	.
4E\	.	4E\	.	.	.	4g\	.	2cc\	.
4F\	.	4F\	.	.	.	8f\L	.	.	.
.	.	.	.	.	.	8e\J	.	.	.
=2	=2	=2	=2	=2	=2	=2	=2	=2	=2
*2\right	*	*2\right	*	*	*	*	*	*	*
2G\	-san-	2G\	-san-	2G/	-san-	2e\	-san-	2cc\	-san-
2GG/	-na	2GG/	-na	2G/	-na	2d\	-na	2b\	-na
2r	.	2r	.	2r	.	2r	.	2r	.
=3	=3	=3	=3	=3	=3	=3	=3	=3	=3
*	*	*	*	*2\right	*	*	*	*	*
4G\	O-	4G\	O-	2B\	o-	1.g	O-	4b\	O-
4A\	.	4A\	.	.	.	.	.	4cc\	.
4B\	.	4B\	.	2G/	.	.	.	4dd\	.
4G\	.	4G\	.	.	.	.	.	4b\	.
4A\	.	4A\	.	2B\	.	.	.	4cc\	.
4B\	.	4B\	.	.	.	.	.	4dd\	.
=4	=4	=4	=4	=4	=4	=4	=4	=4	=4
2c\	-san-	2c\	-san-	2G/	-san-	2g\	-san-	2ee\	-san-
2C/	-na	2C/	-na	2G/	-na	2g\	-na	2ee\	-na
2GG/	in	2GG/	in	2B\	in	2g\	in	2dd\	in
=5	=5	=5	=5	=5	=5	=5	=5	=5	=5
4C/	ex-	4C/	ex-	1.G	ex-	4g\	ex-	4ee\	ex-
4BB/	.	4BB/	.	.	.	4f\	.	4dd\	.
4C/	.	4C/	.	.	.	4e\	.	4cc\	.
4D/	.	4D/	.	.	.	4f\	.	4b\	.
4E\	.	4E\	.	.	.	2g\	.	4cc\	.
4F\	.	4F\	.	.	.	.	.	4dd\	.
!	!	!LO:LB:g=original	!	!	!	!	!	!	!
=6	=6	=6	=6	=6	=6	=6	=6	=6	=6
2G\	-cel-	2G\	-cel-	2G/	-cel-	2e\	-cel-	2cc\	-cel-
2GG/	-sis	2GG/	-sis	2G/	-sis	2d\	-sis	2b\	-sis
2r	.	2r	.	2r	.	2r	.	2r	.
!	!	!	!	!	!	!LO:LB:g=original	!	!	!
=7	=7	=7	=7	=7	=7	=7	=7	=7	=7
4G\	O-	4G\	O-	4B\	O-	1.f	O-	1.dd	O-
4B\	.	4B\	.	4G\	.	.	.	.	.
4d\	.	4d\	.	4B\	.	.	.	.	.
4B\	.	4B\	.	4d\	.	.	.	.	.
4G\	.	4G\	.	4B\	.	.	.	.	.
4B\	.	4B\	.	4G\	.	.	.	.	.
!LO:LB:g=original	!	!	!	!LO:LB:g=original	!	!	!	!LO:LB:g=original	!
=8	=8	=8	=8	=8	=8	=8	=8	=8	=8
2c\	-san-	2c\	-san-	1G	-san-	2g\	-san-	2ee\	-san-
2G\	.	2G\	.	.	.	2f\	.	2dd\	.
2C/	-na	2C/	-na	2G/	-na	2e\	-na	2cc\	-na
=9	=9	=9	=9	=9	=9	=9	=9	=9	=9
1G	in	1G	in	4d\	in	4d\	in	4b\	in
.	.	.	.	4c\	.	4e\	.	4cc\	.
.	.	.	.	2B\	.	2f\	.	2dd\	.
2G\	ex	2G\	ex	2c\	ex-	2e\	ex-	2cc\	ex-
=10	=10	=10	=10	=10	=10	=10	=10	=10	=10
1G	cel-	1G	cel-	4d\	-cel-	4d\	-cel-	4b\	-cel-
.	.	.	.	4c\	.	4e\	.	4cc\	.
.	.	.	.	2B\	.	2f\	.	2dd\	.
2G\	-sis	2G\	-sis	2G/	-sis	2d\	-sis	2b\	-sis
=11	=11	=11	=11	=11	=11	=11	=11	=11	=11
2c\	in	2c\	in	1G	in	2e\	in	2cc\	in
2G\	.	2G\	.	.	.	2f\	.	2dd\	.
2E\	ex-	2E\	ex-	2G/	ex-	2g\	ex-	2ee\	ex-
=12	=12	=12	=12	=12	=12	=12	=12	=12	=12
2F\	-cel-	2F\	-cel-	2A/	-cel-	2f\	-cel-	2dd\	-cel-
2G\	.	2G\	.	1G	.	2e\	.	2cc\	.
2GG/	.	2GG/	.	.	.	2d\	.	2b\	.
=13	=13	=13	=13	=13	=13	=13	=13	=13	=13
1C	-sis	1C	-sis	1G	-sis	1e	-sis.	1cc	-sis
2G\	O-	2G\	O-	2G/	o-	2d\	O-	2b\	O-
!	!	!LO:LB:g=original	!	!	!	!	!	!	!
=14	=14	=14	=14	=14	=14	=14	=14	=14	=14
1G	-san-	1G	-san-	4d\	-san-	4d\	-san-	4b\	-san-
.	.	.	.	4c\	.	4e\	.	4cc\	.
.	.	.	.	2B\	.	2f\	.	2dd\	.
2G\	-na	2G\	-na	2c\	-na	2e\	-na	2cc\	-na
!	!	!	!	!	!	!LO:LB:g=original	!	!	!
=15	=15	=15	=15	=15	=15	=15	=15	=15	=15
1G	in	1G	in	4d\	in	4d\	in	4b\	in
.	.	.	.	4c\	.	4e\	.	4cc\	.
.	.	.	.	2B\	.	2f\	.	2dd\	.
2G\	ex-	2G\	ex-	2G\	ex-	2d\	ex-	2b\	ex-
!	!	!	!	!LO:LB:g=original	!	!	!	!LO:LB:g=original	!
=16	=16	=16	=16	=16	=16	=16	=16	=16	=16
2c\	-cel-	2c\	-cel-	1.G	-cel-	2e\	-cel-	2cc\	-cel-
2G\	.	2G\	.	.	.	2f\	.	2dd\	.
2E\	.	2E\	.	.	.	2g\	.	2ee\	.
=17	=17	=17	=17	=17	=17	=17	=17	=17	=17
2F\	.	2F\	.	2A/	.	2f\	.	2dd\	.
2G\	.	2G\	.	1G	.	2e\	.	2cc\	.
2GG/	.	2GG/	.	.	.	2d\	.	2b\	.
=18	=18	=18	=18	=18	=18	=18	=18	=18	=18
1C	-sis	1C	-sis	1.G	-sis	1.e	-sis	1.cc	-sis
2r	.	2r	.	.	.	.	.	.	.
!LO:LB:g=original	!	!LO:LB:g=original	!	!LO:LB:g=original	!	!LO:LB:g=original	!	!LO:LB:g=original	!
==	==	==;;	==	==	==	==;;	==	==	==
*-	*-	*-	*-	*-	*-	*-	*-	*-	*-
!!!system-decoration: [(s1,s2,s3,s4)]s5
!!!ENC: Berenika Jozajtis
!!!END: 2024-02-28
!!!EED: Marta Chmielewska
!!!EEV: 2024-05-04
